public/images/logos/nexo.svg

<?xml version="1.0" encoding="UTF-8"?><svg id="a" xmlns="http://www.w3.org/2000/svg" viewBox="0 0 170.58 80"><path d="m125.84,28.49h.02c1.94-1.94,1.94-5.09,0-7.02s-5.09-1.94-7.02,0l-11.39,11.39-7.04,7.04,7.02,7-7.04-7-11.38,11.38c-1.94,1.96-1.94,5.09,0,7.04,1.96,1.94,5.09,1.94,7.04,0l11.39-11.39.02.02h0l11.38,11.38c1.91,1.94,5.09,1.94,7,0,1.94-1.96,1.94-5.09,0-7.04l-11.39-11.39h-.02l11.39-11.39h0Z" style="stroke-width:0px;"/><path d="m0,25.09v29.72C0,57.56,2.24,59.78,4.94,59.78s4.97-2.24,4.97-4.97v-17.76L1.42,28.55C.46,27.59,0,26.31,0,25.09Z" style="stroke-width:0px;"/><path d="m151.14,20.16c-.16,0-.32-.02-.47-.02.17,0,.32,0,.47.02Z" style="stroke-width:0px;"/><path d="m34.8,20c-2.73,0-4.97,2.24-4.97,4.99v17.87l8.42,8.49-8.42-8.44v-.04L8.92,21.96s-.02-.04-.04-.05l-.02.04-.12-.11c-.9-1.08-2.25-1.85-3.81-1.85-2.75,0-4.94,2.24-4.94,4.99v.08c0,1.22.47,2.51,1.42,3.46l8.49,8.49v-12.05c0-1.08-.37-2.08-.92-2.91.6.8.95,1.83.95,2.95v12.01l21.31,21.37c1.94,1.94,5.09,1.94,7.02,0,.98-.98,1.48-2.24,1.47-3.54,0,2.72-2.23,4.92-4.93,4.92h0c2.7,0,4.87-2.2,4.91-4.94,0-1.21-.46-2.48-1.4-3.43.99.97,1.44,2.21,1.46,3.45v-29.86c0-2.75-2.24-4.99-4.97-4.99h0ZM.09,24.11c.18-.94.61-1.86,1.34-2.58.06-.06.13-.1.2-.16-.06.06-.13.12-.2.18-.72.71-1.16,1.63-1.34,2.56Zm4.75-4.02h.21-.21Zm-2.76.91c.09-.06.17-.12.26-.17-.09.05-.17.12-.26.17Zm.92-.52c.05-.02.1-.04.15-.06-.05.02-.1.04-.15.06Zm.93-.29s.09-.02.13-.03c-.04,0-.09.02-.13.03Zm4.27,1.16c.07.06.16.12.23.19l.22.22-.22-.2c-.07-.07-.15-.14-.23-.2Zm-2.48-1.19c.12.02.24.04.36.07-.12-.03-.23-.05-.36-.07Zm.85.22c.16.05.31.12.47.2-.15-.07-.31-.13-.47-.2Zm.83.38c.17.1.33.2.49.33-.16-.12-.32-.23-.49-.33Z" style="stroke-width:0px;"/><path d="m51.39,29.43c.7.38,1.51.6,2.37.6h5v-.02h17.91c2.75,0,4.99-2.24,4.99-4.97s-2.24-4.97-4.99-4.97h-22.52l-.37-.02c-.53,0-1.05.09-1.53.24-2.02.63-3.47,2.52-3.47,4.75,0,.35.04.68.1,1v12.97c-.06.32-.1.66-.1,1,0,.25.03.5.06.74v13.43c-.04.23-.06.47-.06.71h0c0,.86.22,1.66.61,2.36.84,1.55,2.47,2.6,4.37,2.6h22.92c2.75,0,4.99-2.24,4.99-4.99s-2.24-4.97-4.99-4.97h-17.87v-4.92h17.87c2.75,0,4.99-2.24,4.99-4.97s-2.24-4.97-4.99-4.97h-17.91v-5h-5v-.02c-.87,0-1.67-.22-2.37-.6h0Zm2.39,30.39c2.75,0,4.99-2.23,4.99-4.96,0,2.75-2.24,4.96-4.99,4.96Zm-.02-9.85c-1.48,0-2.81.64-3.71,1.65.9-1.03,2.2-1.69,3.68-1.69h5.05v.04h-5.01Z" style="stroke-width:0px;"/><path d="m96.06,21.47c-1.97-1.94-5.09-1.94-7.07,0s-1.94,5.09,0,7.02l11.39,11.39,7.04-7.02-11.39-11.39h.03Z" style="stroke-width:0px;"/><path d="m151.62,20.22c2.3.47,4.07,2.48,4.07,4.89,0,2.76-2.24,4.99-4.99,4.99v-.02c2.75,0,4.94-2.24,4.94-4.97,0-2.4-1.73-4.42-4.03-4.89h-.02l.02-.02c-.17-.02-.32-.04-.48-.04.14,0,.28.03.4.06-.28-.04-.61-.06-.87-.06h-.12.08l.02-.02c-.33,0-.61,0-.96.08h.08c.13-.02.28-.04.43-.04-.14,0-.29.03-.43.06h-.08c-1.43.29-2.63,1.18-3.33,2.39.69-1.22,1.89-2.12,3.33-2.41-10.52.53-18.88,9.22-18.88,19.88s8.9,19.86,19.88,19.86v-.06c-2.75,0-5-2.24-5-4.97l.04-.02c0-2.54,1.89-4.68,4.37-4.92-5.21-.33-9.36-4.62-9.36-9.91s4.48-9.94,9.97-9.97v.04h-.04c5.49,0,9.94,4.48,9.94,9.97s-4.1,9.53-9.3,9.88c-.03,0-.04,0-.06,0h-.05c-.12-.04-.24-.04-.35-.04h-.75s0,.04.04.04c-2.51.27-4.4,2.38-4.4,4.92,0,2.75,2.24,4.97,4.99,4.97s4.94-2.24,4.94-4.97c0-1.56-.73-2.96-1.87-3.87,1.17.91,1.93,2.32,1.93,3.89,0,2.75-2.24,4.97-4.99,4.97v.08c10.99,0,19.83-8.91,19.83-19.88v-.02c0-10.66-8.41-19.34-18.93-19.86l-.03-.02Zm1.63,30.46c.11.06.2.12.31.2-.1-.07-.2-.13-.31-.2Zm-.67-.34h0Z" style="stroke-width:0px;"/></svg>

<?xml version="1.0" encoding="UTF-8" standalone="no"?>
<svg id="a" viewBox="0 0 32 32" version="1.1" sodipodi:docname="nexo.svg" width="32" height="32" inkscape:version="1.4-beta2 (9aaf4f34, 2024-07-30)" xmlns:inkscape="http://www.inkscape.org/namespaces/inkscape" xmlns:sodipodi="http://sodipodi.sourceforge.net/DTD/sodipodi-0.dtd" xmlns="http://www.w3.org/2000/svg" xmlns:svg="http://www.w3.org/2000/svg">
  <defs id="defs7" />
  <sodipodi:namedview id="namedview7" pagecolor="#ffffff" bordercolor="#000000" borderopacity="0.25" inkscape:showpageshadow="2" inkscape:pageopacity="0.0" inkscape:pagecheckerboard="0" inkscape:deskcolor="#d1d1d1" inkscape:zoom="0.72463176" inkscape:cx="150.42123" inkscape:cy="113.85093" inkscape:window-width="1440" inkscape:window-height="790" inkscape:window-x="0" inkscape:window-y="0" inkscape:window-maximized="1" inkscape:current-layer="a" />
  <g id="g7" transform="matrix(0.80311206,0,0,0.80311206,0.03413225,-16.05421)">
    <path d="m 0,25.09 v 29.72 c 0,2.75 2.24,4.97 4.94,4.97 2.7,0 4.97,-2.24 4.97,-4.97 V 37.05 L 1.42,28.55 C 0.46,27.59 0,26.31 0,25.09 Z" style="stroke-width:0px" id="path2" />
    <path d="m 34.8,20 c -2.73,0 -4.97,2.24 -4.97,4.99 v 17.87 l 8.42,8.49 -8.42,-8.44 V 42.87 L 8.92,21.96 c 0,0 -0.02,-0.04 -0.04,-0.05 L 8.86,21.95 8.74,21.84 c -0.9,-1.08 -2.25,-1.85 -3.81,-1.85 -2.75,0 -4.94,2.24 -4.94,4.99 v 0.08 c 0,1.22 0.47,2.51 1.42,3.46 L 9.9,37.01 V 24.96 c 0,-1.08 -0.37,-2.08 -0.92,-2.91 0.6,0.8 0.95,1.83 0.95,2.95 v 12.01 l 21.31,21.37 c 1.94,1.94 5.09,1.94 7.02,0 0.98,-0.98 1.48,-2.24 1.47,-3.54 0,2.72 -2.23,4.92 -4.93,4.92 v 0 c 2.7,0 4.87,-2.2 4.91,-4.94 0,-1.21 -0.46,-2.48 -1.4,-3.43 0.99,0.97 1.44,2.21 1.46,3.45 V 24.98 c 0,-2.75 -2.24,-4.99 -4.97,-4.99 v 0 z M 0.09,24.11 c 0.18,-0.94 0.61,-1.86 1.34,-2.58 0.06,-0.06 0.13,-0.1 0.2,-0.16 -0.06,0.06 -0.13,0.12 -0.2,0.18 -0.72,0.71 -1.16,1.63 -1.34,2.56 z M 4.84,20.09 H 5.05 Z M 2.08,21 C 2.17,20.94 2.25,20.88 2.34,20.83 2.25,20.88 2.17,20.95 2.08,21 Z M 3,20.48 C 3.05,20.46 3.1,20.44 3.15,20.42 3.1,20.44 3.05,20.46 3,20.48 Z m 0.93,-0.29 c 0,0 0.09,-0.02 0.13,-0.03 -0.04,0 -0.09,0.02 -0.13,0.03 z m 4.27,1.16 c 0.07,0.06 0.16,0.12 0.23,0.19 l 0.22,0.22 -0.22,-0.2 C 8.36,21.49 8.28,21.42 8.2,21.36 Z M 5.72,20.16 C 5.84,20.18 5.96,20.2 6.08,20.23 5.96,20.2 5.85,20.18 5.72,20.16 Z m 0.85,0.22 c 0.16,0.05 0.31,0.12 0.47,0.2 -0.15,-0.07 -0.31,-0.13 -0.47,-0.2 z m 0.83,0.38 c 0.17,0.1 0.33,0.2 0.49,0.33 C 7.73,20.97 7.57,20.86 7.4,20.76 Z" style="stroke-width:0px" id="path4" />
  </g>
</svg>
